public/images/close.svg

<svg fill="none" height="17" viewBox="0 0 17 17" width="17" xmlns="http://www.w3.org/2000/svg"><path clip-rule="evenodd" d="m16.0756 1.19634c-.7471-.747057-1.9583-.747055-2.7054 0l-4.73437 4.73441-4.73424-4.73424c-.74705-.747048-1.95826-.747048-2.70531 0-.747058.74706-.747056 1.95827 0 2.70532l4.73423 4.73424-4.73419 4.73423c-.747053.747-.747053 1.9582 0 2.7053.74705.747 1.95827.747 2.70532 0l4.73419-4.7342 4.73437 4.7344c.7471.747 1.9583.747 2.7053 0 .7471-.7471.7471-1.9583 0-2.7054l-4.7344-4.73433 4.7345-4.73442c.747-.74705.747-1.95826 0-2.70531z" fill="#b4b4b4" fill-rule="evenodd"/></svg>

<svg width="17" height="17" viewBox="0 0 17 17" fill="none" xmlns="http://www.w3.org/2000/svg">
  <path fill-rule="evenodd" clip-rule="evenodd" d="M16.0756 1.19634C15.3285 0.449283 14.1173 0.449285 13.3702 1.19634L8.63583 5.93075L3.90159 1.19651C3.15454 0.449462 1.94333 0.449462 1.19628 1.19651C0.449222 1.94357 0.449224 3.15478 1.19628 3.90183L5.93051 8.63607L1.19632 13.3703C0.449267 14.1173 0.449267 15.3285 1.19632 16.0756C1.94337 16.8226 3.15459 16.8226 3.90164 16.0756L8.63583 11.3414L13.3702 16.0758C14.1173 16.8228 15.3285 16.8228 16.0755 16.0758C16.8226 15.3287 16.8226 14.1175 16.0755 13.3704L11.3411 8.63607L16.0756 3.90165C16.8226 3.1546 16.8226 1.94339 16.0756 1.19634Z" fill="#B4B4B4"/>
</svg>
